X: 8
T: Lea Rig, The
Z: ceolachan
S: https://thesession.org/tunes/13977#setting25697
R: reel
M: 4/4
L: 1/8
K: Gmaj
|: BA |G2- GB D2 D/E/F | G2- GA G2- GB | A2 A>B cB AG | c2 E2 E2 c/B/A |
G2 GB D2 EF | G2 GA GB d/e/f/g/ | e>^d ef ge dc | B2 G>F G2 :|
|: B/c/d |e2- ef g2- gB | c>B B/c/d e2 G2 | A>^G AB cB B/A/G | c2 E>^D E2 d/c/B/A/ |
G>F GB D2 C/D/E/F/ | G2- GA G>B dg | e2- ef g2 e/d/c | B2- BG G2 :|
